!!!OTL: Die wiedergefundene Tochter.
!!!OTL-incipit: DER KOENIG ZOG WOHL UEBER DEN RHEIN
!!!ARE: Europa, Mitteleuropa, Deutschland, Niederrhein
!!!SCT: Z1012
!!!TXL: @@DE
!!!YEM: Copyright 1995, estate of Helmut Schaffrath.
**kern	**text
*ICvox	*
*M6/8	*
*k[b-e-]	*
*g:	*
!LO:TX:a:t=Vorſänger.	!
!LO:TX:a:t=(Odinwaldſage, noch geſungen am Niederrhein.)	!
{8d	Der
=1	=1
8gL	Kö-
8aJ	.
8b-/	-nig
4a	ʒog
8a	wohl
=2	=2
8g	ü-
8f#	-ber
8g	den
4a;}	Rhein,
!LO:TX:a:t=Alle.	!
{8a	ʒur
=3	=3
8b-/L	Mai-
16cc	.
16ddJ	.
16cc/L	-en-
16b-J	.
4a;}	-ʒeit!
!LO:TX:a:t=Vorſänger.	!
{16a/L	er
16ddJ	.
=4	=4
8dd/L	dacht
8ccJ	.
8b-/	an's
8cc/L	klei-
8b-J	.
8a	-ne
=5	=5
8b-/L	Töch-
16cc	.
16ddJ	.
16cc/L	-ter-
16b-J	.
8aL	-lein!
8gJ}	.
!LO:TX:a:t=Alle.	!
{8a	ʒur
=6	=6
8gL	Mai-
8f#J	.
16gL	-en-
16e-J	.
4d;	-ʒeit
8g	das
=7	=7
8f#L	Herʒ
8gJ	.
8b-/	er-
4a;}	-freut,
{24b-/L	von
24cc	.
24ddJ	.
=8	=8
4.cc/	dan-
4dd/	-nen
16cc/L	das
16aJ	.
=9	=9
4b-/	Win-
8a	-ter-
4g;}	-leid.
==	==
!!!AGN: Romanze, Ballade, Odinwald - Sage
!!!ONB: ESAC (Essen Associative Code) Database: ZUCCAL
!!!AMT: compound duple
!!!AIN: vox
!!!EED: Helmut Schaffrath
!!!EEV: 1.0
!!@@COMMENT:"In original fragments with three voices"
!!@@END:
!!!GTL: I. Volks- Leuschen.
!!!URL-scan: https://www.digitale-sammlungen.de/de/view/bsb11160573?page=40
!!!ENC: Anna Maria Matuszewska
!!!EEV: 2025/01/31
*-	*-
